X:1
T:Cant dels Ocells
T:Cant dels Ocells
T:Pau Casals
C:Pau Casals
%%score 1 2 3 4
L:1/8
M:4/4
K:F
V:1 treble nm="Violí" snm="Vln."
V:2 treble transpose=-2 nm="Clarinet en Si♭" snm="Cl. Si♭"
V:3  transpose=-7 nm="Trompa en Fa" snm="Trmp. Fa"
V:4 bass nm="Trombó" snm="Tbn."
V:1
 A2 | d2 e2 f2 g2 | a8- | a6 d'2 | ^c'2 a2 b2 =c'2 | a6 b2 | c'2 b2 d'2 d'2 | ^c'3 b a4- | a8 | %9
 a8 | ^f2 g2 a2 b2 | g8- | g6 g2 | c'2 b2 a2 g2 | a6 gf | e2 f2 g2 f2 | a8 | d8- | d8 | a8 | %20
 ^f2 g2 abc'b | g8- | g6 g2 | c'2 b2 a2 g2 | a6 gf | e2 f2 g2 f2 | a8 | d8 |] %28
V:2
[K:G] B2 | e2 f2 g2 a2 | b8- | b6 e'2 | ^d'2 b2 c'2 =d'2 | b6 c'2 | d'2 c'2 e'2 e'2 | ^d'3 c' b4- | %8
 b8 | d8- | d8 | c8- | c4 g4 | f2 d2 e2 f2 | d8 | A8 | B8 | G8- | G8 | b8 | ^g2 a2 bc'd'c' | a8- | %22
 a6 a2 | d'2 c'2 b2 a2 | b6 ag | f2 g2 a2 g2 | b8 | e8 |] %28
V:3
[K:C] E,2 | A,2 B,2 C2 D2 | E8- | E6 A2 | ^G2 E2 F2 =G2 | E6 F2 | G2 F2 A2 A2 | ^G3 F E4- | E8 | %9
 E8 | ^C2 D2 E2 F2 | D8- | D6 D2 | G2 F2 E2 D2 | E6 DC | B,2 C2 D2 C2 | E8 | A,8- | A,8 | E8 | %20
 ^C2 D2 EFGF | D8- | D6 D2 | B,2 B,2 C2 B,2 | C6 DC | B,2 C2 D2 A,2 | ^G,8 | A,8 |] %28
V:4
 z2 | z4 z2 A,,2 | D,2 E,2 F,2 G,2 | F,4 D,2 F,2 | E,2 F,2 D,2 E,2 | F,2 E,2 D,4 | D,4 F,4 | %7
 E,3 D, ^C,2 A,,2 | A,2 G,2 F,2 E,2 | F,4 _E,4 | D,4 C,4 | B,,4 G,2 F,2 | E,4 D,4 | %13
 E,2 C,2 D,2 E,2 | F,6 E,D, | ^C,2 D,2 E,2 D,2 | ^C,2 A,,2 =B,,2 C,2 | D,8- | D,8 | F,4 _E,4 | %20
 D,4 C,2 D,2 | B,,4 G,2 F,2 | E,4 D,4 | E,2 C,2 D,2 E,2 | F,6 E,D, | ^C,2 D,2 E,2 D,2 | %26
 ^C,2 A,,2 =B,,2 C,2 | D,8 |] %28

